!!!COM: Georges Bizet
!!!CNT: Francais
!!!TXO: Francais
!!!OTL: Rose d'Amour
!!!LYR: Charles Millevoye
!!!OPR: Feuilles d'Album
!!!ONM: No. 5
!!!ENC: Jacob Pegg
!!!YOR: Romantic French Song 1830-1870 -David Tunley, ed.,
!!!YOR: New York: Garland Publishing, Inc., 1995, Vol. 4
!!!ODT: 1866/
!!NB: Vocal melody and text only encoded.
!!NB: First instance of melodic material only encoded.
**kern	**silbe
*clef G2	*
*k[b-]	*
*M4/4	*
!!created: 5/12/03 11:40
!!proofed and posted: 5/12/03 13:01
!!edit time: 72 min.
=5	=5
{4d	{Ro-
8.d	-se
16d	d'a-
8c#	-mour,
8c#	nou-
8.e	-vel-
16e	-le e/-
=6	=6
2d	-clo-
8c#}	-se,}
8r	.
{4e	{Lan-
=7	=7
4g	-guit
8.g	dans
16g	le
4f	creux
8.f	du
16f	val-
=8	=8
[4d	-lon,
8d]}	|}
8r	.
2r	.
=9	=9
{[8f	{Nul-
16f]	-le,
16r	.
8.f	de
16f	me/-
4f	-moi-
8.e	-re
16f	de
=10	=10
2g	ro-
8a}	-se,}
8r	.
{4a	{N'a
=11	=11
8.cc	tant
16a	souf-
[4e	-fert
8e]	|
8e	de
(16eq	|
16gnq	|
8.f)	l'A-
16e	-qui-
=12	=12
[2e	-lon!
8e]}	|}
8r	.
8r	.
{8a	{E/-
=13	=13
8.b-	-poux
16c#	sau-
[4c#	-va-
16c#]}	-ge,}
16r	.
{8e	{il
8.f	la
16g	tour-
=14	=14
(4.a	-men-
8f)	|
8d}	-te,}
8r	.
{8.a	{Son
16a	a-
=15	=15
4.g	-mour
8g	res-
4f	-sem-
8.g	-ble au
16a	cour-
=16	=16
[4e	-roux;
8e]}	|}
8r	.
4r	.
{[4a	{Et
=17	=17
8a]	|
8f#	Ze/-
[8d	-phyr,
16d]	|
16r	.
8c#	dont
8cc#	elle
8.bn	est
16a	l'a-
=18	=18
(4a	man-
[4dd)	|
(12dd]	|
12cc#	|
24bn)}	-te,}
24r	.
{(12a	{Lui
12.g)	|
24Bn	pro-
=19	=19
(4d	-met
16eq	|
16dq	|
16c#	|
16d	|
16A)	des
16f#	bai-
4.f#	-sers
8e	plus
=20	=20
[4d	doux!
8d]}	|}
8r	.
2r	.
!!mm21-22 rest; mm 23-33 repeat material
=34	=34
2r	.
8r	.
8r	.
{4a	{De
=35	=35
4a	cel-
8.g	-le
16a	qui
4b-	fut
8.cc	u-
16dd	-ne
=36	=36
[2cc	ro-
(12cc]	|
12b-	|
12a)	-se,
(12g	En
12f	|
12e)	|
=37	=37
[8f	vain
16f]	|
16r	.
8.e	at-
16d	-ten-
4f	-dra
(16eq	|
16fq	|
8.e)	le
16d	re/-
=38	=38
[4d	-veil!
8d]}	|}
8r	.
2r	.
=39	=39
1r	.
=40	=40
{4f	{Ro-
8.c	-se
16d	d'a-
16c	-mour,
16r	.
8f	ta
8.a	des-
16cc	-ti-
=41	=41
(4.cc	-ne/-
8b-)	|
4a}	-e}
4r	.
=42	=42
{8.f	{De
16d	l'a-
4B-	-mour
8d	ob-
8f	-tint
8.b-	un
16dd	sou-
=43	=43
[2cc	-pir;
4cc]}	|}
4r	.
=44	=44
{4f	{Un
12c	mys-
12d	-te/r-
12c	-i-
4f	-eux
8.a	hy-
16cc	-me/-
=45	=45
(4.cc	-ne/-
8b-)	|
4a}	-e}
8r	.
{8a	{U-
=46	=46
4a	-nit
8.cc#	et
16a	la
4ee	fleur
8.e	et
16bn	Ze/-
=47	=47
2a}	-phyr:}
4r	.
8r	.
{8a	{Ze/-
=48	=48
8b-	-phyr,
16r	.
16c#	a\
[4c#	l'heu-
8c#]	|
8e	-re ou\
8.f	tout
16g	re-
=49	=49
(4.a	-po-
8f)	|
4d}	-se,}
8r	.
{8a	{Trom-
=50	=50
4g#	-pa
8.gn	le
16gn	ja-
4f	-loux
8.gn	a-
16a	-qui-
=51	=51
[2e	-lon;
8e]}	|}
8r	.
{8.a	{Au
16a	plai-
=52	=52
(4a	-sir
8f#	|
8d)	|
8c#	il
8cc#	ren-
8.bn	-dit
16a	la
=53	=53
4a	ro-
4dd}	-se,}
12r	.
{12cc#	{Et
12bn	son
(12a	or-
12g)	|
12Bn	-ne-
=54	=54
(4d	-ment
24e	|
24d	|
24c#	|
24d	|
24A	|
24f#)	|
4.f#	au
8e	val-
=55	=55
[4d	-lon.
8d]}	|}
4r	.
8r	.
{8.a	{Au
16bn	plai-
=56	=56
(4a	-sir
4dd)	|
8e	il
8a	ren-
8.a	-dit
16bn	la
=57	=57
(8.a	ro-
16f#)	|
[4a	-se
8a]}	|}
8r	.
{8.a	{Au
16a	plai-
=58	=58
[2dd	-sir!
8dd]}	|}
8r;	.
{8.d	{et
16e	son
=59	=59
8.f#	or-
16gn	-ne-
2a	-ment
8.bn	au
16cc#	val-
=60	=60
[2dd	-lon.
4dd]}	|}
4r	.
*-	*-
